X: 130
T:PASSEPIED de PLAINTEL 3
M:4/4
L:1/4
Q:1/4=60
Z:Yves BELOTTEAU
K:G
|DGG^A =AG^D2|AAAG/2A/2 ^A2G2|=DGG^A =AG^D2|AAAG/2A/2 ^A2G2|
=AAAG/2A/2 ^AG^D2|=AAAG/2A/2 ^A2G2|=AAAG/2A/2 ^AG^D2|=AAAG/2A/2 ^A2G2|
BcB=A GBAB/2B/2|BcBA GBG2|BcBA GBAB/2B/2|BcBA BGE2|
=D/2E/2F/2G/2A2 BBA2|D/2E/2F/2G/2AB GFG2|D/2E/2F/2G/2A2 BBA2|D/2E/2F/2G/
2AB GFG2|
W:
W: From "Falaleiro" http://home.t-online.de/home/pheld/homepage.htm
